Setup/v9/Assets/Themes/Kobe/Refresh.svg

<svg width="20" height="20" viewBox="0 0 20 20" fill="none" xmlns="http://www.w3.org/2000/svg">
<g clip-path="url(#clip0_806_767)">
<path fill-rule="evenodd" clip-rule="evenodd" d="M6.43854 2.02225C6.70813 2.08205 6.87819 2.34908 6.81838 2.61867L6.81672 2.62592L6.12754 5.73235C6.06773 6.00194 5.8007 6.172 5.53111 6.11219C5.26153 6.05238 5.09147 5.78535 5.15128 5.51577L5.30059 4.84273C5.38272 4.47255 5.35649 4.10358 5.243 3.76893C2.07544 6.28668 1.25813 10.8422 3.47988 14.3308C4.97601 16.6801 7.49338 17.9851 10.0839 18.0356L10.8122 18.0166C10.8439 18.0144 10.8755 18.0119 10.9071 18.0093L10.9102 18.0141L11.3859 18.0017C11.7017 17.9935 11.9642 18.2427 11.9725 18.5584C11.9807 18.8742 11.7314 19.1367 11.4157 19.145L10.8722 19.1591C10.6099 19.1773 10.3474 19.184 10.0856 19.1796L9.79887 19.1871C9.73134 19.1888 9.66623 19.1788 9.60552 19.1589C6.8085 18.9645 4.13693 17.4916 2.51523 14.9452C-0.0357682 10.9396 0.91895 5.70321 4.5811 2.83428C4.35322 2.65565 4.0828 2.52393 3.78124 2.45702L3.10328 2.30661C2.83369 2.24681 2.66363 1.97978 2.72344 1.71019C2.78325 1.4406 3.05028 1.27054 3.31986 1.33035L6.43854 2.02225ZM14.4056 17.8649C14.1361 17.8051 13.966 17.5381 14.0258 17.2685L14.0275 17.2612L14.7166 14.1548C14.7765 13.8852 15.0435 13.7151 15.3131 13.775C15.5827 13.8348 15.7527 14.1018 15.6929 14.3714L15.5436 15.0444C15.4708 15.3724 15.4831 15.6994 15.5658 16.0025C18.4461 13.4365 19.124 9.08879 16.985 5.73003C15.6062 3.56503 13.3601 2.28689 10.9887 2.06022L9.39768 2.04609C9.08188 2.04329 8.82814 1.78501 8.83095 1.46921C8.83307 1.23011 8.98163 1.0266 9.19073 0.943051L9.18804 0.938833L9.20758 0.936624C9.27002 0.913948 9.3375 0.901849 9.40783 0.902473L9.5632 0.903853C10.0634 0.867612 10.5642 0.872782 11.0603 0.91821C11.0693 0.918834 11.0782 0.919665 11.087 0.920697C13.8008 1.17719 16.372 2.63846 17.9496 5.11569C20.4304 9.01096 19.5959 14.0701 16.1802 16.9842C16.4243 17.1978 16.724 17.3549 17.0629 17.4301L17.7409 17.5805C18.0105 17.6403 18.1806 17.9074 18.1207 18.177C18.0609 18.4465 17.7939 18.6166 17.5243 18.5568L14.4056 17.8649Z" fill="#fff"/>
</g>
<defs>
<clipPath id="clip0_806_767">
<rect width="20" height="20" fill="white"/>
</clipPath>
</defs>
</svg>

<svg xmlns="http://www.w3.org/2000/svg" width="20" height="20" fill="none"><g><path fill="#ddd" fill-rule="evenodd" d="M6.439 2.022a.5.5 0 0 1 .38.597l-.002.007-.69 3.106a.5.5 0 0 1-.976-.216l.15-.673a1.99 1.99 0 0 0-.058-1.074 8.007 8.007 0 0 0 4.84 14.267l.73-.02.094-.007.003.005.476-.012a.572.572 0 1 1 .03 1.143l-.544.014a9.145 9.145 0 0 1-.786.02l-.287.008a.573.573 0 0 1-.193-.028A9.15 9.15 0 0 1 4.582 2.834a1.992 1.992 0 0 0-.8-.377l-.679-.15a.5.5 0 1 1 .217-.977l3.119.692Zm7.967 15.843a.5.5 0 0 1-.38-.596l.002-.008.689-3.106a.5.5 0 0 1 .976.216l-.15.673a1.99 1.99 0 0 0 .023.959A8.008 8.008 0 0 0 10.989 2.06l-1.591-.014A.572.572 0 0 1 9.19.943L9.188.94l.02-.002a.57.57 0 0 1 .2-.035l.155.002a9.16 9.16 0 0 1 1.524.017 9.134 9.134 0 0 1 6.863 4.195c2.48 3.895 1.646 8.954-1.77 11.868.244.214.544.37.883.446l.678.15a.5.5 0 1 1-.217.977l-3.118-.692Z" clip-rule="evenodd"/></g></svg>
